assets/video.svg

<svg fill="none" viewBox="0 0 24 24" xmlns="http://www.w3.org/2000/svg"><path clip-rule="evenodd" d="m3.75 9c0-1.65685 1.34315-3 3-3h7c1.5384 0 2.8064 1.15803 2.9798 2.64996l1.276-.72914c1-.57142 2.2442.15063 2.2442 1.30236v5.55362c0 1.1518-1.2442 1.8738-2.2442 1.3024l-1.276-.7292c-.1734 1.492-1.4414 2.65-2.9798 2.65h-7c-1.65685 0-3-1.3431-3-3zm13 5.2098 1.7519 1.0011c.3334.1905.7481-.0502.7481-.4341v-5.55362c0-.38391-.4147-.6246-.7481-.43412l-1.7519 1.0011zm-10-7.2098c-1.10457 0-2 .89543-2 2v6c0 1.1046.89543 2 2 2h7c1.1046 0 2-.8954 2-2v-6c0-1.10457-.8954-2-2-2z" fill="#000" fill-rule="evenodd"/></svg>

<svg xmlns="http://www.w3.org/2000/svg" viewBox="0 0 24 24" fill="none" x="0px" y="0px"><path fill-rule="evenodd" clip-rule="evenodd" d="M3.75 9C3.75 7.34315 5.09315 6 6.75 6H13.75C15.2884 6 16.5564 7.15803 16.7298 8.64996L18.0058 7.92082C19.0058 7.3494 20.25 8.07145 20.25 9.22318V14.7768C20.25 15.9286 19.0058 16.6506 18.0058 16.0792L16.7298 15.35C16.5564 16.842 15.2884 18 13.75 18H6.75C5.09315 18 3.75 16.6569 3.75 15V9ZM16.75 14.2098L18.5019 15.2109C18.8353 15.4014 19.25 15.1607 19.25 14.7768V9.22318C19.25 8.83927 18.8353 8.59858 18.5019 8.78906L16.75 9.79016V14.2098ZM6.75 7C5.64543 7 4.75 7.89543 4.75 9V15C4.75 16.1046 5.64543 17 6.75 17H13.75C14.8546 17 15.75 16.1046 15.75 15V9C15.75 7.89543 14.8546 7 13.75 7H6.75Z" fill="black"></path></svg>
